!!!OTL: Piano Concerto No. 4 "Incantation"
!!!OMV: I: Poco allegro
!!!example: 505
!!!work: Mau-110
!!!Xfilter: transpose -t P8 -s 40
**kern	**dynam	**kern	**dynam	**kern	**dynam	**kern	**dynam	**kern	**dynam	**kern	**kern	**dynam	**kern	**kern	**dynam	**kern	**dynam	**kern	**dynam	**kern	**dynam	**kern	**dynam	**kern	**dynam	**kern	**dynam	**kern	**dynam	**kern	**dynam	**kern	**dynam	**kern	**dynam	**kern	**dynam	**kern	**dynam	**kern	**dynam	**kern	**dynam	**kern	**dynam	**kern	**dynam
*part17	*part17	*part16	*part16	*part15	*part15	*part14	*part14	*part14	*part14	*part13	*part13	*part13	*part12	*part12	*part12	*part11	*part11	*part10	*part10	*part10	*part10	*part9	*part9	*part8	*part8	*part7	*part7	*part6	*part6	*part6	*part6	*part5	*part5	*part5	*part5	*part4	*part4	*part4	*part4	*part3	*part3	*part2	*part2	*part2	*part2	*part1	*part1
*staff25	*	*staff24	*	*staff23	*	*staff22	*	*staff21	*	*staff20	*staff19	*	*staff18	*staff17	*	*staff16	*	*staff15	*	*staff14	*	*staff13	*	*staff12	*	*staff11	*	*staff10	*	*staff9	*	*staff8	*	*staff7	*	*staff6	*	*staff5	*	*staff4	*	*staff3	*	*staff2	*	*staff1	*
*I"Contrabass	*	*I"Violoncello	*	*I"Viola	*	*I"Violin II	*	*I"Violin I	*	*	*I"Piano solo	*	*	*I"Harp	*	*I"Xylophone	*	*I"Tambourine	*	*I"Tenor Drum	*	*I"Timp.	*	*I"Tromboni 1. 2. 3.	*	*I"Trumpet in C 1. 2.	*	*I"Horn in F 3. 4.	*	*I"Horn in F 1. 2.	*	*I"Bassoon 2.	*	*I"Bassoon 1.	*	*I"Clarinet in C 2.	*	*I"Clarinet in C 1.	*	*I"Oboe 1. 2.	*	*I"Flute 2.	*	*I"Flute 1.	*	*I"Piccolo	*
*I'Cb.	*	*I'Vc.	*	*I'Vla.	*	*I'Vln. II	*	*I'Vln. I	*	*	*I'Pno.	*	*	*I'Hp.	*	*I'Xyl.	*	*I'Tbrine.	*	*I'T.Drum	*	*I'Timp.	*	*I'Trb.1.2.3.	*	*I'Trp.1.2.	*	*I'Hn.3.4.	*	*I'Hn.1.2.	*	*I'Bsn.2.	*	*I'Bsn.1.	*	*I'Cl.2.	*	*I'Cl.1.	*	*I'Ob.1.2.	*	*I'Fl.2.	*	*I'Fl.1.	*	*I'Picc.	*
*clefF4	*	*clefF4	*	*clefG2	*	*clefG2	*	*clefG2	*	*clefF4	*clefG2	*	*clefG2	*clefG2	*	*clefG2	*	*clefX	*	*clefX	*	*clefF4	*	*clefF4	*	*clefG2	*	*clefG2	*	*clefG2	*	*clefF4	*	*clefF4	*	*clefG2	*	*clefG2	*	*clefG2	*	*clefG2	*	*clefG2	*	*clefG2	*
*ITrd7c12	*	*	*	*	*	*	*	*	*	*	*	*	*	*	*	*ITrd0c0	*	*stria1	*	*stria1	*	*	*	*	*	*	*	*ITrd4c7	*	*ITrd4c7	*	*	*	*	*	*	*	*	*	*	*	*	*	*	*	*ITrd-7c-12	*
*k[]	*	*k[]	*	*k[]	*	*k[]	*	*k[]	*	*k[]	*k[]	*	*k[]	*k[]	*	*k[]	*	*k[]	*	*k[]	*	*k[]	*	*k[]	*	*k[]	*	*k[b-]	*	*k	*	*k[]	*	*k[]	*	*k[]	*	*k[]	*	*k[]	*	*k[]	*	*k[]	*	*k[]	*
*C:	*	*C:	*	*C:	*	*C:	*	*C:	*	*C:	*C:	*	*C:	*C:	*	*C:	*	*C:	*	*C:	*	*C:	*	*C:	*	*C:	*	*F:	*	*C	*	*C:	*	*C:	*	*C:	*	*C:	*	*C:	*	*C:	*	*C:	*	*C:	*
*M4/4	*	*M4/4	*	*M4/4	*	*M4/4	*	*M4/4	*	*M4/4	*M4/4	*	*M4/4	*M4/4	*	*M4/4	*	*M4/4	*	*M4/4	*	*M4/4	*	*M4/4	*	*M4/4	*	*M4/4	*	*M4/4	*	*M4/4	*	*M4/4	*	*M4/4	*	*M4/4	*	*M4/4	*	*M4/4	*	*M4/4	*	*M4/4	*
*MM121	*	*MM121	*	*MM121	*	*MM121	*	*MM121	*	*MM121	*MM121	*	*MM121	*MM121	*	*MM121	*	*MM121	*	*MM121	*	*MM121	*	*MM121	*	*MM121	*	*MM121	*	*MM121	*	*MM121	*	*MM121	*	*MM121	*	*MM121	*	*MM121	*	*MM121	*	*MM121	*	*MM121	*
=44	=44	=44	=44	=44	=44	=44	=44	=44	=44	=44	=44	=44	=44	=44	=44	=44	=44	=44	=44	=44	=44	=44	=44	=44	=44	=44	=44	=44	=44	=44	=44	=44	=44	=44	=44	=44	=44	=44	=44	=44	=44	=44	=44	=44	=44	=44	=44
!	!LO:DY:ed=brack	!	!LO:DY:ed=brack	!	!LO:DY:ed=brack	!	!LO:DY:ed=brack	!	!LO:DY:ed=brack	!	!	!	!	!	!	!	!	!	!	!	!	!	!	!	!	!	!	!	!	!	!LO:DY:ed=brack	!	!LO:DY:ed=brack	!	!LO:DY:ed=brack	!	!LO:DY:ed=brack	!	!LO:DY:ed=brack	!	!LO:DY:ed=brack	!	!LO:DY:ed=brack	!	!LO:DY:ed=brack	!	!
8EE-X'^	ff	8EE-X'^ 8BB-X 8G	ff	8cc#X'^	ff	8gg'^	ff	8ggg'^	ff	8r	8r	.	1r	1r	.	1r	.	1r	.	1r	.	8E-X	.	1r	.	1r	.	1r	.	8c#X' 8eX	ff	8c#X'	ff	8e'	ff	8gg'	ff	8bb-X'	ff	8gg'	ff	8ggg'	ff	8ggg'	ff	1r	.
8r	.	8r	.	8r	.	8r	.	8r	.	16CC#X'LL 16C#X	16cn'LL 16ccn	f	.	.	.	.	.	.	.	.	.	8r	.	.	.	.	.	.	.	8r	.	8r	.	8r	.	8r	.	8r	.	8r	.	8r	.	8r	.	.	.
.	.	.	.	.	.	.	.	.	.	16DD'JJ 16D	16c#X'JJ 16cc#X	.	.	.	.	.	.	.	.	.	.	.	.	.	.	.	.	.	.	.	.	.	.	.	.	.	.	.	.	.	.	.	.	.	.	.	.
4r	.	4r	.	4r	.	4r	.	4r	.	(16DD#XLL 16D#X	(16dLL 16dd	.	.	.	.	.	.	.	.	.	.	4r	.	.	.	.	.	.	.	4r	.	4r	.	4r	.	4r	.	4r	.	4r	.	4r	.	4r	.	.	.
.	.	.	.	.	.	.	.	.	.	16EE 16E)	16d#X 16dd#X)	.	.	.	.	.	.	.	.	.	.	.	.	.	.	.	.	.	.	.	.	.	.	.	.	.	.	.	.	.	.	.	.	.	.	.	.
.	.	.	.	.	.	.	.	.	.	16FF' 16F	16e' 16ee	.	.	.	.	.	.	.	.	.	.	.	.	.	.	.	.	.	.	.	.	.	.	.	.	.	.	.	.	.	.	.	.	.	.	.	.
.	.	.	.	.	.	.	.	.	.	16FF#X'JJ 16F#X	16f'JJ 16ff	.	.	.	.	.	.	.	.	.	.	.	.	.	.	.	.	.	.	.	.	.	.	.	.	.	.	.	.	.	.	.	.	.	.	.	.
2r	.	2r	.	2r	.	2r	.	2r	.	16GG'LL 16G	8f#X'L 8ff#X	.	.	.	.	.	.	.	.	.	.	2r	.	.	.	.	.	.	.	2r	.	2r	.	2r	.	2r	.	2r	.	2r	.	2r	.	2r	.	.	.
.	.	.	.	.	.	.	.	.	.	16GG#X' 16G#X	.	.	.	.	.	.	.	.	.	.	.	.	.	.	.	.	.	.	.	.	.	.	.	.	.	.	.	.	.	.	.	.	.	.	.	.	.
.	.	.	.	.	.	.	.	.	.	16AA' 16A	16g'L 16gg	.	.	.	.	.	.	.	.	.	.	.	.	.	.	.	.	.	.	.	.	.	.	.	.	.	.	.	.	.	.	.	.	.	.	.	.
.	.	.	.	.	.	.	.	.	.	16AA#X'JJ 16A#X	16g#X'JJ 16gg#X	.	.	.	.	.	.	.	.	.	.	.	.	.	.	.	.	.	.	.	.	.	.	.	.	.	.	.	.	.	.	.	.	.	.	.	.
.	.	.	.	.	.	.	.	.	.	(16BBLL 16B	(16aLL 16aa	.	.	.	.	.	.	.	.	.	.	.	.	.	.	.	.	.	.	.	.	.	.	.	.	.	.	.	.	.	.	.	.	.	.	.	.
.	.	.	.	.	.	.	.	.	.	16C# 16c)	16a#X 16aa#X)	.	.	.	.	.	.	.	.	.	.	.	.	.	.	.	.	.	.	.	.	.	.	.	.	.	.	.	.	.	.	.	.	.	.	.	.
.	.	.	.	.	.	.	.	.	.	16C#X' 16c#X	16b' 16bb	.	.	.	.	.	.	.	.	.	.	.	.	.	.	.	.	.	.	.	.	.	.	.	.	.	.	.	.	.	.	.	.	.	.	.	.
.	.	.	.	.	.	.	.	.	.	16D#'JJ 16d	16cc#'JJ 16ccc	.	.	.	.	.	.	.	.	.	.	.	.	.	.	.	.	.	.	.	.	.	.	.	.	.	.	.	.	.	.	.	.	.	.	.	.
=45	=45	=45	=45	=45	=45	=45	=45	=45	=45	=45	=45	=45	=45	=45	=45	=45	=45	=45	=45	=45	=45	=45	=45	=45	=45	=45	=45	=45	=45	=45	=45	=45	=45	=45	=45	=45	=45	=45	=45	=45	=45	=45	=45	=45	=45	=45	=45
!	!	!	!	!	!	!	!	!	!	!	!	!	!	!	!	!	!	!	!	!	!	!	!	!	!	!	!	!	!	!	!	!	!	!	!	!	!	!	!	!	!	!	!	!	!	!	!
1r	.	1r	.	1r	.	1r	.	1r	.	16D#X'LL 16d#X	8cc#X'L 8ccc#X	.	1r	1r	.	1r	.	1r	.	1r	.	1r	.	1r	.	1r	.	1r	.	1r	.	1r	.	1r	.	1r	.	1r	.	1r	.	1r	.	1r	.	1r	.
.	.	.	.	.	.	.	.	.	.	16E' 16e	.	.	.	.	.	.	.	.	.	.	.	.	.	.	.	.	.	.	.	.	.	.	.	.	.	.	.	.	.	.	.	.	.	.	.	.	.
.	.	.	.	.	.	.	.	.	.	16F' 16f	16ddn'L 16dddn	.	.	.	.	.	.	.	.	.	.	.	.	.	.	.	.	.	.	.	.	.	.	.	.	.	.	.	.	.	.	.	.	.	.	.	.
.	.	.	.	.	.	.	.	.	.	16F#X'JJ 16f#X	16dd#X'JJ 16ddd#X	.	.	.	.	.	.	.	.	.	.	.	.	.	.	.	.	.	.	.	.	.	.	.	.	.	.	.	.	.	.	.	.	.	.	.	.
*	*	*	*	*	*	*	*	*	*	*clefG2	*	*	*	*	*	*	*	*	*	*	*	*	*	*	*	*	*	*	*	*	*	*	*	*	*	*	*	*	*	*	*	*	*	*	*	*	*
*	*	*	*	*	*	*	*	*	*	*	*8va	*	*	*	*	*	*	*	*	*	*	*	*	*	*	*	*	*	*	*	*	*	*	*	*	*	*	*	*	*	*	*	*	*	*	*	*
.	.	.	.	.	.	.	.	.	.	(16GLL 16g	(16eeLL 16eee	.	.	.	.	.	.	.	.	.	.	.	.	.	.	.	.	.	.	.	.	.	.	.	.	.	.	.	.	.	.	.	.	.	.	.	.
.	.	.	.	.	.	.	.	.	.	16G#X 16g#X)	16ff 16fff)	.	.	.	.	.	.	.	.	.	.	.	.	.	.	.	.	.	.	.	.	.	.	.	.	.	.	.	.	.	.	.	.	.	.	.	.
.	.	.	.	.	.	.	.	.	.	16A' 16a	16ff#X' 16fff#X	.	.	.	.	.	.	.	.	.	.	.	.	.	.	.	.	.	.	.	.	.	.	.	.	.	.	.	.	.	.	.	.	.	.	.	.
.	.	.	.	.	.	.	.	.	.	16A#X'JJ 16a#X	16ggn'JJ 16gggn	.	.	.	.	.	.	.	.	.	.	.	.	.	.	.	.	.	.	.	.	.	.	.	.	.	.	.	.	.	.	.	.	.	.	.	.
.	.	.	.	.	.	.	.	.	.	16B'LL 16b	8gg#X'L 8ggg#X	.	.	.	.	.	.	.	.	.	.	.	.	.	.	.	.	.	.	.	.	.	.	.	.	.	.	.	.	.	.	.	.	.	.	.	.
.	.	.	.	.	.	.	.	.	.	16c' 16cc	.	.	.	.	.	.	.	.	.	.	.	.	.	.	.	.	.	.	.	.	.	.	.	.	.	.	.	.	.	.	.	.	.	.	.	.	.
.	.	.	.	.	.	.	.	.	.	16c#X' 16cc#X	16aan'L 16aaan	<	.	.	.	.	.	.	.	.	.	.	.	.	.	.	.	.	.	.	.	.	.	.	.	.	.	.	.	.	.	.	.	.	.	.	.
.	.	.	.	.	.	.	.	.	.	16d#'JJ 16dd	16aa#X'JJ 16aaa#X	.	.	.	.	.	.	.	.	.	.	.	.	.	.	.	.	.	.	.	.	.	.	.	.	.	.	.	.	.	.	.	.	.	.	.	.
.	.	.	.	.	.	.	.	.	.	16d#X'LL 16dd#X	16bb'LL 16bbb	.	.	.	.	.	.	.	.	.	.	.	.	.	.	.	.	.	.	.	.	.	.	.	.	.	.	.	.	.	.	.	.	.	.	.	.
.	.	.	.	.	.	.	.	.	.	16e' 16ee	16ccc#' 16cccc#	.	.	.	.	.	.	.	.	.	.	.	.	.	.	.	.	.	.	.	.	.	.	.	.	.	.	.	.	.	.	.	.	.	.	.	.
.	.	.	.	.	.	.	.	.	.	16f#' 16ff	16ccc#X' 16cccc#X	.	.	.	.	.	.	.	.	.	.	.	.	.	.	.	.	.	.	.	.	.	.	.	.	.	.	.	.	.	.	.	.	.	.	.	.
.	.	.	.	.	.	.	.	.	.	16f#X'JJ 16ff#X	16ddd#'JJ 16dddd#	[	.	.	.	.	.	.	.	.	.	.	.	.	.	.	.	.	.	.	.	.	.	.	.	.	.	.	.	.	.	.	.	.	.	.	.
*	*	*clefG2	*	*	*	*	*	*	*	*	*	*	*	*	*	*	*	*	*	*	*	*	*	*	*	*	*	*	*	*	*	*	*	*	*	*	*	*	*	*	*	*	*	*	*	*	*
=46	=46	=46	=46	=46	=46	=46	=46	=46	=46	=46	=46	=46	=46	=46	=46	=46	=46	=46	=46	=46	=46	=46	=46	=46	=46	=46	=46	=46	=46	=46	=46	=46	=46	=46	=46	=46	=46	=46	=46	=46	=46	=46	=46	=46	=46	=46	=46
*	*	*^	*	*^	*	*	*	*	*	*	*	*	*	*	*	*	*	*	*	*	*	*	*	*	*	*	*	*	*	*	*	*	*	*	*	*	*	*	*	*^	*	*	*	*	*	*	*
!	!	!LO:TX:a:i:t=cantabile	!	!	!	!	!	!	!	!	!	!	!	!	!	!	!	!	!	!	!	!	!	!	!	!	!	!	!	!	!	!	!	!	!	!	!	!	!	!	!	!	!	!	!	!	!	!	!	!
!LO:TX:a:t=pizz.	!	!LO:TX:a:t=div.	!	!	!LO:TX:a:t=div.	!	!	!LO:TX:a:t=col legno div.	!	!LO:TX:a:t=pizz. div.	!	!	!	!	!	!	!	!	!	!LO:TX:a:t=col pugno	!	!	!	!	!	!	!	!	!	!	!	!	!	!	!	!	!	!	!	!	!	!	!	!	!	!	!	!	!	!
4r	.	8ryy	8r	.	8r	8ryy	.	4r	.	8r	.	8g'^L 8gg	8eee-X'^L 8eeee-X	ff	8r	8r	.	8r	.	4r	.	1r	.	1r	.	4r	.	1r	.	1r	.	4r	.	8r	.	8r	.	8r	.	8r	.	4ryy	4r	.	8r	.	4r	.	8r	.
.	.	.	.	.	.	.	.	.	.	.	.	.	.	.	.	.	.	.	.	.	.	.	.	.	.	.	.	.	.	.	.	.	.	.	.	.	.	.	.	.	.	.	.	.	(8qddd/	f	.	f	.	.
.	.	(4g	(4e-X	mf	(4b-X	(4f	mf	.	.	8ee-X^ 8eee-X	f	16g'L 16gg	16eee-'L 16eeee-	.	8ee-X'	8eee-X'	f	8ee-X'	pp	.	.	.	.	.	.	.	.	.	.	.	.	.	.	(4e-X	mf	[8g	mf	(4f	mf	(4b-X	mf	.	.	.	8eee-X')	.	.	.	8eeee-X'	f
.	.	.	.	.	.	.	.	.	.	.	.	16g'JJ 16gg	16eee-'JJ 16eeee-	.	.	.	.	.	.	.	.	.	.	.	.	.	.	.	.	.	.	.	.	.	.	.	.	.	.	.	.	.	.	.	.	.	.	.	.	.
.	.	.	.	.	.	.	.	.	.	.	.	.	.	.	.	.	.	.	.	.	.	.	.	.	.	.	.	.	.	.	.	.	.	.	.	.	.	.	.	.	.	.	(16qcc\LL	f	.	.	.	.	.	.
!	!	!	!	!	!	!	!	!	!	!	!	!	!	!	!	!	!	!	!	!	!	!	!	!	!	!	!	!	!	!	!	!LO:TX:a:t=a2	!	!	!	!	!	!	!	!	!	!	!	!	!	!	!	!	!	!
.	.	.	.	.	.	.	.	.	.	.	.	.	.	.	.	.	.	.	.	.	.	.	.	.	.	.	.	.	.	.	.	.	.	.	.	.	.	.	.	.	.	.	16qdd\JJ	.	.	f	(8qfff/	f	.	.
8E-X	p	.	.	.	.	.	.	8ee-X^ 8eee-X	f	4r	.	8g'L 8gg	8eee-'L 8eeee-	.	8r	8r	.	4r	.	8exL	p	.	.	.	.	[2.BB- [2.E-X [2.G	p	.	.	.	.	[2.e-	p	.	.	2.g_	.	.	.	.	.	8rccc	8ee-X')	.	8r	.	8eee-X')	.	16eeee-'LL	.
.	.	.	.	.	.	.	.	.	.	.	.	.	.	.	.	.	.	.	.	.	.	.	.	.	.	.	.	.	.	.	.	.	.	.	.	.	.	.	.	.	.	.	.	.	.	.	.	.	16eeee-'J	.
.	.	.	.	.	.	.	.	.	.	.	.	.	.	.	.	.	.	.	.	.	.	.	.	.	.	.	.	.	.	.	.	.	.	.	.	.	.	.	.	.	.	(16qff/LL	.	.	.	.	.	.	.	.
.	.	.	.	.	.	.	.	.	.	.	.	.	.	.	.	.	.	.	.	.	.	.	.	.	.	.	.	.	.	.	.	.	.	.	.	.	.	.	.	.	.	16qeen/JJ	.	.	(8qddd/	.	.	.	.	.
8r	.	8an	8f	.	8cc	8g	.	8r	.	.	.	8cc'J 8ccc	8ddd'J 8dddd	.	8dd'	8ddd'	.	.	.	8exJ	.	.	.	.	.	.	.	.	.	.	.	.	.	8f	.	.	.	8a	.	8cc	.	8ee-X')	8rc	.	8eee-')	.	8r	.	16dddd'L	.
.	.	.	.	.	.	.	.	.	.	.	.	.	.	.	.	.	.	.	.	.	.	.	.	.	.	.	.	.	.	.	.	.	.	.	.	.	.	.	.	.	.	.	.	.	.	.	.	.	16dddd'JJ	.
.	.	.	.	.	.	.	.	.	.	.	.	.	.	.	.	.	.	.	.	.	.	.	.	.	.	.	.	.	.	.	.	.	.	.	.	.	.	.	.	.	.	.	.	.	.	.	(8qfff/	.	.	.
8BB-X	.	4g)	4e-)	.	4b-)	4f)	.	8r	.	8ee-^ 8eee-	.	8b-X'L 8bb-X	8ccc'L 8cccc	.	8cc'L	8ccc'L	.	8r	.	8exL	.	.	.	.	.	.	.	.	.	.	.	.	.	4e-	.	.	.	4f	.	4b-	.	4ryy	4r	.	8r	.	8eee-')	.	16cccc'LL	.
.	.	.	.	.	.	.	.	.	.	.	.	.	.	.	.	.	.	.	.	.	.	.	.	.	.	.	.	.	.	.	.	.	.	.	.	.	.	.	.	.	.	.	.	.	.	.	.	.	16cccc'J	.
.	.	.	.	.	.	.	.	.	.	.	.	.	.	.	.	.	.	.	.	.	.	.	.	.	.	.	.	.	.	.	.	.	.	.	.	.	.	.	.	.	.	.	.	.	(8qddd/	.	.	.	.	.
8r	.	.	.	.	.	.	.	8ee-^ 8eee-	.	8r	.	16g'L 16gg	16eee-'L 16eeee-	.	8ee-'J	8eee-'J	.	8ee-'	.	8exJ	.	.	.	.	.	.	.	.	.	.	.	.	.	.	.	.	.	.	.	.	.	.	.	.	8eee-')	.	8r	.	8eeee-'J	.
.	.	.	.	.	.	.	.	.	.	.	.	16g'JJ 16gg	16eee-'JJ 16eeee-	.	.	.	.	.	.	.	.	.	.	.	.	.	.	.	.	.	.	.	.	.	.	.	.	.	.	.	.	.	.	.	.	.	.	.	.	.
.	.	.	.	.	.	.	.	.	.	.	.	.	.	.	.	.	.	.	.	.	.	.	.	.	.	.	.	.	.	.	.	.	.	.	.	.	.	.	.	.	.	.	(16qcc\LL	.	.	.	.	.	.	.
.	.	.	.	.	.	.	.	.	.	.	.	.	.	.	.	.	.	.	.	.	.	.	.	.	.	.	.	.	.	.	.	.	.	.	.	.	.	.	.	.	.	.	16qdd\JJ	.	.	.	(8qfff/	.	.	.
8E-	.	(8aL	(8fL	.	(8ccL	(8gL	.	4r	.	8r	.	16b-'LL 16bb-	16ccc'LL 16cccc	.	8r	8r	.	4r	.	8exL	.	.	.	.	.	.	.	.	.	.	.	.	.	8fL	.	.	.	8aL	.	8ccL	.	8rccc	8ee-')	.	8r	.	8eee-')	.	16cccc'LL	.
.	.	.	.	.	.	.	.	.	.	.	.	16b-'J 16bb-	16ccc'J 16cccc	.	.	.	.	.	.	.	.	.	.	.	.	.	.	.	.	.	.	.	.	.	.	.	.	.	.	.	.	.	.	.	.	.	.	.	16cccc'J	.
.	.	.	.	.	.	.	.	.	.	.	.	.	.	.	.	.	.	.	.	.	.	.	.	.	.	.	.	.	.	.	.	.	.	.	.	.	.	.	.	.	.	(16qff/LL	.	.	.	.	.	.	.	.
.	.	.	.	.	.	.	.	.	.	.	.	.	.	.	.	.	.	.	.	.	.	.	.	.	.	.	.	.	.	.	.	.	.	.	.	.	.	.	.	.	.	16qeen/JJ	.	.	(8qddd/	.	.	.	.	.
8r	.	[8gJ	[8e-J	.	[8b-J	[8fJ	.	.	.	8ee-^ 8eee-	.	8f'J 8ff	8bb-X'J 8bbb-X	.	8b-X'	8bb-X'	.	.	.	8exJ	.	.	.	.	.	.	.	.	.	.	.	.	.	[8e-J	.	.	.	[8fJ	.	[8b-J	.	8ee-X')	8rc	.	8eee-)	.	8r	.	16bbb-X'L	.
.	.	.	.	.	.	.	.	.	.	.	.	.	.	.	.	.	.	.	.	.	.	.	.	.	.	.	.	.	.	.	.	.	.	.	.	.	.	.	.	.	.	.	.	.	.	.	.	.	16bbb-'JJ	.
*	*	*	*	*	*	*	*	*	*	*	*	*	*	*	*	*	*	*	*	*	*	*	*	*	*	*	*	*	*	*	*	*	*	*	*	*	*	*	*	*	*	*	*	*	*	*	*	*	*	*
=47	=47	=47	=47	=47	=47	=47	=47	=47	=47	=47	=47	=47	=47	=47	=47	=47	=47	=47	=47	=47	=47	=47	=47	=47	=47	=47	=47	=47	=47	=47	=47	=47	=47	=47	=47	=47	=47	=47	=47	=47	=47	=47	=47	=47	=47	=47	=47	=47	=47	=47
4r	.	4g])	4e-])	.	4b-])	4f])	.	8ee-X 8eee-X	.	4r	.	8e-X'L 8ee-X	8eee-X'L 8eeee-X	.	8ee-X'L	8eee-X'L	.	4r	.	4r	.	1r	.	1r	.	2BB-_ 2E-_ 2G_	.	1r	.	1r	.	8e-]	.	4e-)]	.	4g]	.	4f)]	.	4b-])	.	4ryy	4r	.	8r	.	4r	.	16eeee-X'LL	.
.	.	.	.	.	.	.	.	.	.	.	.	.	.	.	.	.	.	.	.	.	.	.	.	.	.	.	.	.	.	.	.	.	.	.	.	.	.	.	.	.	.	.	.	.	.	.	.	.	16eeee-'J	.
.	.	.	.	.	.	.	.	.	.	.	.	.	.	.	.	.	.	.	.	.	.	.	.	.	.	.	.	.	.	.	.	.	.	.	.	.	.	.	.	.	.	.	.	.	(8qddd/	.	.	.	.	.
.	.	.	.	.	.	.	.	8r	.	.	.	8f'J 8ff	8ddd'J 8dddd	.	8dd'J	8ddd'J	.	.	.	.	.	.	.	.	.	.	.	.	.	.	.	8r	.	.	.	.	.	.	.	.	.	.	.	.	8eee-X')	.	.	.	16dddd'L	.
.	.	.	.	.	.	.	.	.	.	.	.	.	.	.	.	.	.	.	.	.	.	.	.	.	.	.	.	.	.	.	.	.	.	.	.	.	.	.	.	.	.	.	.	.	.	.	.	.	16dddd'JJ	.
.	.	.	.	.	.	.	.	.	.	.	.	.	.	.	.	.	.	.	.	.	.	.	.	.	.	.	.	.	.	.	.	.	.	.	.	.	.	.	.	.	.	.	(16qcc\LL	.	.	.	.	.	.	.
.	.	.	.	.	.	.	.	.	.	.	.	.	.	.	.	.	.	.	.	.	.	.	.	.	.	.	.	.	.	.	.	.	.	.	.	.	.	.	.	.	.	.	16qdd\JJ	.	.	.	(8qfff/	.	.	.
8E-X	.	2g	(4f	.	(4ee-X	(4cc	.	8r	.	8ee-X^ 8eee-X	.	8b-X'L 8bb-X	8ccc'L 8cccc	.	8r	8r	.	8r	.	8exL	.	.	.	.	.	.	.	.	.	.	.	[2.e-	.	(4f	.	[2.g	.	4cc	.	(4ee-X	.	8rccc	8ee-X')	.	8r	.	8eee-X')	.	16cccc'LL	.
.	.	.	.	.	.	.	.	.	.	.	.	.	.	.	.	.	.	.	.	.	.	.	.	.	.	.	.	.	.	.	.	.	.	.	.	.	.	.	.	.	.	.	.	.	.	.	.	.	16cccc'J	.
.	.	.	.	.	.	.	.	.	.	.	.	.	.	.	.	.	.	.	.	.	.	.	.	.	.	.	.	.	.	.	.	.	.	.	.	.	.	.	.	.	.	(16qff/LL	.	.	.	.	.	.	.	.
.	.	.	.	.	.	.	.	.	.	.	.	.	.	.	.	.	.	.	.	.	.	.	.	.	.	.	.	.	.	.	.	.	.	.	.	.	.	.	.	.	.	16qeen/JJ	.	.	(8qddd/	.	.	.	.	.
8r	.	.	.	.	.	.	.	8ee- 8eee-	.	8r	.	16g'L 16gg	16fff'L 16ffff	.	8ff'	8fff'	.	8ff'	.	8exJ	.	.	.	.	.	.	.	.	.	.	.	.	.	.	.	.	.	.	.	.	.	8ee-X')	8rc	.	8eee-')	.	8r	.	8ffff'J	.
.	.	.	.	.	.	.	.	.	.	.	.	16g'JJ 16gg	16fff'JJ 16ffff	.	.	.	.	.	.	.	.	.	.	.	.	.	.	.	.	.	.	.	.	.	.	.	.	.	.	.	.	.	.	.	.	.	.	.	.	.
.	.	.	.	.	.	.	.	.	.	.	.	.	.	.	.	.	.	.	.	.	.	.	.	.	.	.	.	.	.	.	.	.	.	.	.	.	.	.	.	.	.	.	.	.	.	.	(8qfff/	.	.	.
8BB-X	.	.	4e-X)	.	4dd)	4b-X)	.	4r	.	8r	.	8f'L 8ff	8eee-'L 8eeee-	.	8ee-'L	8eee-'L	.	4r	.	8exL	.	.	.	.	.	8BB-] 8E-] 8G]	.	.	.	.	.	.	.	4e-	.	.	.	4b-X	.	4dd	.	4r	4ryy	.	8r	.	8eee-')	.	16eeee-'LL	.
.	.	.	.	.	.	.	.	.	.	.	.	.	.	.	.	.	.	.	.	.	.	.	.	.	.	.	.	.	.	.	.	.	.	.	.	.	.	.	.	.	.	.	.	.	.	.	.	.	16eeee-'J	.
.	.	.	.	.	.	.	.	.	.	.	.	.	.	.	.	.	.	.	.	.	.	.	.	.	.	.	.	.	.	.	.	.	.	.	.	.	.	.	.	.	.	.	.	.	(8qddd/	.	.	.	.	.
8r	.	.	.	.	.	.	.	.	.	8ee-^ 8eee-	.	8cc'J 8ccc	8ddd'J 8dddd	.	8dd'J	8ddd'J	.	.	.	8exJ	.	.	.	.	.	8r	.	.	.	.	.	.	.	.	.	.	.	.	.	.	.	.	.	.	8eee-')	.	8r	.	16dddd'L	.
.	.	.	.	.	.	.	.	.	.	.	.	.	.	.	.	.	.	.	.	.	.	.	.	.	.	.	.	.	.	.	.	.	.	.	.	.	.	.	.	.	.	.	.	.	.	.	.	.	16dddd'JJ	.
.	.	.	.	.	.	.	.	.	.	.	.	.	.	.	.	.	.	.	.	.	.	.	.	.	.	.	.	.	.	.	.	.	.	.	.	.	.	.	.	.	.	.	(16qcc\LL	.	.	.	.	.	.	.
.	.	.	.	.	.	.	.	.	.	.	.	.	.	.	.	.	.	.	.	.	.	.	.	.	.	.	.	.	.	.	.	.	.	.	.	.	.	.	.	.	.	.	16qdd\JJ	.	.	.	(8qfff/	.	.	.
4r	.	(8aL	(8fL	.	(8ccL	(8gL	.	8ee- 8eee-	.	4r	.	8b-'L 8bb-	8ccc'L 8cccc	.	8r	8r	.	8r	.	8exL	.	.	.	.	.	[4BB- [4E- [4G	.	.	.	.	.	.	.	8fL	.	.	.	8aL	.	8ccL	.	8rccc	8ee-')	.	8r	.	8eee-')	.	16cccc'LL	.
.	.	.	.	.	.	.	.	.	.	.	.	.	.	.	.	.	.	.	.	.	.	.	.	.	.	.	.	.	.	.	.	.	.	.	.	.	.	.	.	.	.	.	.	.	.	.	.	.	16cccc'J	.
.	.	.	.	.	.	.	.	.	.	.	.	.	.	.	.	.	.	.	.	.	.	.	.	.	.	.	.	.	.	.	.	.	.	.	.	.	.	.	.	.	.	(16qff-X/LL	.	.	.	.	.	.	.	.
.	.	.	.	.	.	.	.	.	.	.	.	.	.	.	.	.	.	.	.	.	.	.	.	.	.	.	.	.	.	.	.	.	.	.	.	.	.	.	.	.	.	16qeen/JJ	.	.	(8qddd/	.	.	.	.	.
.	.	[8gJ	[8e-J	.	[8b-J	[8fJ	.	8r	.	.	.	16g'L 16gg	16eee-'L 16eeee-	.	8ee-'	8eee-'	.	8ee-X'	.	8exJ	.	.	.	.	.	.	.	.	.	.	.	.	.	[8e-J	.	.	.	[8fJ	.	[8b-XJ	.	8ee-X')	8rc	.	8eee-')	.	8r	.	8eeee-'J	.
.	.	.	.	.	.	.	.	.	.	.	.	16g'JJ 16gg	16eee-'JJ 16eeee-	.	.	.	.	.	.	.	.	.	.	.	.	.	.	.	.	.	.	.	.	.	.	.	.	.	.	.	.	.	.	.	.	.	.	.	.	.
=48	=48	=48	=48	=48	=48	=48	=48	=48	=48	=48	=48	=48	=48	=48	=48	=48	=48	=48	=48	=48	=48	=48	=48	=48	=48	=48	=48	=48	=48	=48	=48	=48	=48	=48	=48	=48	=48	=48	=48	=48	=48	=48	=48	=48	=48	=48	=48	=48	=48	=48
4r	.	8g])	8e-])	.	8b-])	8f])	.	8r	.	8ee-X^ 8eee-X	.	8e-X'L 8ee-X	8ddd'L 8dddd	.	8dd'L	8ddd'L	.	2r	.	4r	.	1r	.	1r	.	2.BB-_ 2.E-_ 2.G_	.	1r	.	1r	.	8e-]	.	8e-)]	.	8gL]	.	8f]	.	8b-])	.	4ryy	4r	.	8r	.	4r	.	16dddd'LL	.
.	.	.	.	.	.	.	.	.	.	.	.	.	.	.	.	.	.	.	.	.	.	.	.	.	.	.	.	.	.	.	.	.	.	.	.	.	.	.	.	.	.	.	.	.	.	.	.	.	16dddd'J	.
.	.	.	.	.	.	.	.	.	.	.	.	.	.	.	.	.	.	.	.	.	.	.	.	.	.	.	.	.	.	.	.	.	.	.	.	.	.	.	.	.	.	.	.	.	(8qddd/	.	.	.	.	.
.	.	[4g	(4f	.	(4ee-X	(4cc	.	8ee-X 8eee-X	.	8r	.	8f'J 8ff	8bb-X'J 8bbb-X	.	8b-X'J	8bb-X'J	.	.	.	.	.	.	.	.	.	.	.	.	.	.	.	8r	.	(4f	.	[8gJ	.	4cc	.	(4ee-X	.	.	.	.	8eee-X')	.	.	.	16bbb-X'L	.
.	.	.	.	.	.	.	.	.	.	.	.	.	.	.	.	.	.	.	.	.	.	.	.	.	.	.	.	.	.	.	.	.	.	.	.	.	.	.	.	.	.	.	.	.	.	.	.	.	16bbb-'JJ	.
.	.	.	.	.	.	.	.	.	.	.	.	.	.	.	.	.	.	.	.	.	.	.	.	.	.	.	.	.	.	.	.	.	.	.	.	.	.	.	.	.	.	.	(16qcc\LL	.	.	.	.	.	.	.
.	.	.	.	.	.	.	.	.	.	.	.	.	.	.	.	.	.	.	.	.	.	.	.	.	.	.	.	.	.	.	.	.	.	.	.	.	.	.	.	.	.	.	16qdd\JJ	.	.	.	(8qfff/	.	.	.
8E-X	.	.	.	.	.	.	.	8r	.	8r	.	8f'L 8ff	8ccc'L 8cccc	.	8r	8r	.	.	.	8exL	.	.	.	.	.	.	.	.	.	.	.	2.e-	.	.	.	2.g]	.	.	.	.	.	8rccc	8ee-X')	.	8r	.	8eee-X')	.	16cccc'LL	.
.	.	.	.	.	.	.	.	.	.	.	.	.	.	.	.	.	.	.	.	.	.	.	.	.	.	.	.	.	.	.	.	.	.	.	.	.	.	.	.	.	.	.	.	.	.	.	.	.	16cccc'J	.
.	.	.	.	.	.	.	.	.	.	.	.	.	.	.	.	.	.	.	.	.	.	.	.	.	.	.	.	.	.	.	.	.	.	.	.	.	.	.	.	.	.	(16qff/LL	.	.	.	.	.	.	.	.
.	.	.	.	.	.	.	.	.	.	.	.	.	.	.	.	.	.	.	.	.	.	.	.	.	.	.	.	.	.	.	.	.	.	.	.	.	.	.	.	.	.	16qeen/JJ	.	.	(8qddd/	.	.	.	.	.
8r	.	4g]	4e-X)	.	4dd)	4b-X)	.	8r	.	8ee-^ 8eee-	.	16b-X'L 16bb-X	16ccc'L 16cccc	.	8cc'	8ccc'	.	.	.	8exJ	.	.	.	.	.	.	.	.	.	.	.	.	.	4e-X	.	.	.	4b-X	.	4dd	.	8ee-X')	8rc	.	8eee-')	.	8r	.	8cccc'J	.
.	.	.	.	.	.	.	.	.	.	.	.	16b-'JJ 16bb-	16ccc'JJ 16cccc	.	.	.	.	.	.	.	.	.	.	.	.	.	.	.	.	.	.	.	.	.	.	.	.	.	.	.	.	.	.	.	.	.	.	.	.	.
.	.	.	.	.	.	.	.	.	.	.	.	.	.	.	.	.	.	.	.	.	.	.	.	.	.	.	.	.	.	.	.	.	.	.	.	.	.	.	.	.	.	.	.	.	.	.	(8qfff/	.	.	.
8BB-X	.	.	.	.	.	.	.	8ee- 8eee-	.	4r	.	8g'L 8gg	8eee-X'L 8eeee-X	.	8ee-X'L	8eee-X'L	.	8ee-X'	.	8exL	.	.	.	.	.	.	.	.	.	.	.	.	.	.	.	.	.	.	.	.	.	4r	4ryy	.	8r	.	8eee-')	.	16eeee-X'LL	.
.	.	.	.	.	.	.	.	.	.	.	.	.	.	.	.	.	.	.	.	.	.	.	.	.	.	.	.	.	.	.	.	.	.	.	.	.	.	.	.	.	.	.	.	.	.	.	.	.	16eeee-'J	.
.	.	.	.	.	.	.	.	.	.	.	.	.	.	.	.	.	.	.	.	.	.	.	.	.	.	.	.	.	.	.	.	.	.	.	.	.	.	.	.	.	.	.	.	.	(8qddd/	.	.	.	.	.
8r	.	(8a	(8f	.	(8cc	(8g	.	4r	.	.	.	8e-'J 8ee-	8ddd'J 8dddd	.	8dd'J	8ddd'J	.	8r	.	8exJ	.	.	.	.	.	.	.	.	.	.	.	.	.	8f	.	.	.	8a	.	8cc	.	.	.	.	8eee-')	.	8r	.	16dddd'L	.
.	.	.	.	.	.	.	.	.	.	.	.	.	.	.	.	.	.	.	.	.	.	.	.	.	.	.	.	.	.	.	.	.	.	.	.	.	.	.	.	.	.	.	.	.	.	.	.	.	16dddd'JJ	.
.	.	.	.	.	.	.	.	.	.	.	.	.	.	.	.	.	.	.	.	.	.	.	.	.	.	.	.	.	.	.	.	.	.	.	.	.	.	.	.	.	.	.	(16qcc\LL	.	.	.	.	.	.	.
.	.	.	.	.	.	.	.	.	.	.	.	.	.	.	.	.	.	.	.	.	.	.	.	.	.	.	.	.	.	.	.	.	.	.	.	.	.	.	.	.	.	.	16qdd\JJ	.	.	.	(8qfff/	.	.	.
8EE-X	.	4g)	4e-)	.	4b-X)	4f)	.	.	.	8ee-^ 8eee-	.	16f'LL 16ff	16bb-'LL 16bbb-	.	4r	4r	.	4r	.	8exL	.	.	.	.	.	8BB-] 8E-] 8G]	.	.	.	.	.	.	.	4e-)	.	.	.	4f	.	4b-X)	.	8rccc	8ee-')	.	8r	.	8eee-')	.	8bbb-'L	.
.	.	.	.	.	.	.	.	.	.	.	.	16f'J 16ff	16bb-'J 16bbb-	.	.	.	.	.	.	.	.	.	.	.	.	.	.	.	.	.	.	.	.	.	.	.	.	.	.	.	.	.	.	.	.	.	.	.	.	.
.	.	.	.	.	.	.	.	.	.	.	.	.	.	.	.	.	.	.	.	.	.	.	.	.	.	.	.	.	.	.	.	.	.	.	.	.	.	.	.	.	.	(16qff/LL	.	.	.	.	.	.	.	.
.	.	.	.	.	.	.	.	.	.	.	.	.	.	.	.	.	.	.	.	.	.	.	.	.	.	.	.	.	.	.	.	.	.	.	.	.	.	.	.	.	.	16qeen/JJ	.	.	(8qddd/	.	.	.	.	.
8r	.	.	.	.	.	.	.	8ee- 8eee-	.	8r	.	8b-'J 8bb-	8ccc'J 8cccc	.	.	.	.	.	.	8exJ	.	.	.	.	.	8r	.	.	.	.	.	.	.	.	.	.	.	.	.	.	.	8ee-X')	8rc	.	8eee-')	.	8r	.	(8ccccJ	.
*	*	*	*	*	*	*	*	*	*	*	*	*	*	*	*clefF4	*	*	*	*	*	*	*	*	*	*	*	*	*	*	*	*	*	*	*	*	*	*	*	*	*	*	*	*	*	*	*	*	*	*	*
=49	=49	=49	=49	=49	=49	=49	=49	=49	=49	=49	=49	=49	=49	=49	=49	=49	=49	=49	=49	=49	=49	=49	=49	=49	=49	=49	=49	=49	=49	=49	=49	=49	=49	=49	=49	=49	=49	=49	=49	=49	=49	=49	=49	=49	=49	=49	=49	=49	=49	=49
!	!	!	!	!LO:DY:t= poco %s	!	!	!LO:DY:t= poco %s	!	!	!	!	!	!LO:TX:a:t=sim.	!	!	!	!	!	!	!	!	!	!	!	!	!	!	!	!	!	!	!	!	!	!LO:DY:t= poco %s	!	!LO:DY:t= poco %s	!	!LO:DY:t= poco %s	!	!LO:DY:t= poco %s	!	!	!LO:DY:t= poco %s	!	!	!	!	!	!
4r	.	2.g	(4d	f <	(4bn	(4a	f <	4r	.	8r	.	8gL 8gg	8bb'L 8bbb	.	2FF: 2C: 2F: 2A:	2Bn: 2d: 2g: 2bn:	.	8r	.	4r	.	1r	.	1r	.	2.C 2.F 2.A	.	1r	.	1r	.	[1d	.	(4d	f	2.g	f	4a	f	(4bn	f	(4dd	(4bn	f	8r	.	4r	.	8bbbnL)	.
!	!	!	!	!	!	!	!	!	!	!	!	!	!	!	!	!	!	!	!	!	!	!	!	!	!	!	!	!	!	!	!	!	!	!	!	!	!	!	!	!	!	!	!	!	!	!	!	!	!LO:TX:a:i:t=sim. stacc.	!
.	.	.	.	.	.	.	.	.	.	.	.	.	.	.	.	.	.	.	.	.	.	.	.	.	.	.	.	.	.	.	.	.	.	.	.	.	.	.	.	.	.	.	.	.	(8qccc#X/	.	.	.	.	.
.	.	.	.	.	.	.	.	.	.	8dd^ 8ddd	.	16fL 16g 16a 16b	16aaL 16ddd 16ggg	.	.	.	.	8dd'	.	.	.	.	.	.	.	.	.	.	.	.	.	.	.	.	.	.	.	.	.	.	.	.	.	.	8ddd')	.	.	.	16gggL	.
.	.	.	.	.	.	.	.	.	.	.	.	16fJJ 16g 16a 16b	16ggJJ 16ccc 16fff	.	.	.	.	.	.	.	.	.	.	.	.	.	.	.	.	.	.	.	.	.	.	.	.	.	.	.	.	.	.	.	.	.	.	.	16fffJJ	.
.	.	.	.	.	.	.	.	.	.	.	.	.	.	.	.	.	.	.	.	.	.	.	.	.	.	.	.	.	.	.	.	.	.	.	.	.	.	.	.	.	.	.	.	.	.	.	(8qeeen/	.	.	.
8FFn	.	.	8c#XL	.	8aL	8enL	.	8dd 8ddd	.	4r	.	8fL 8g 8a 8b	8ffL 8bb 8eee	.	.	.	.	4r	.	8eXL	.	.	.	.	.	.	.	.	.	.	.	.	.	8c#XL	.	.	.	8eL	.	8aL	.	8eeL	8cc#XL	.	8r	.	8ddd')	.	8eeeL	.
.	.	.	.	.	.	.	.	.	.	.	.	.	.	.	.	.	.	.	.	.	.	.	.	.	.	.	.	.	.	.	.	.	.	.	.	.	.	.	.	.	.	.	.	.	(8qccc#/	.	.	.	.	.
8r	.	.	[8dJ	.	[8bJ	[8aJ	.	8r	.	.	.	16fL 16g 16a 16b	16ggL 16ccc 16fff	.	.	.	.	.	.	8exJ	.	.	.	.	.	.	.	.	.	.	.	.	.	[8dJ	.	.	.	[8aJ	.	[8bJ	.	[8ddJ	[8bJ	.	8ddd')	.	8r	.	16fffL	.
.	.	.	.	.	.	.	.	.	.	.	.	16fJJ 16g 16a 16b	16ffJJ 16bb 16eee	.	.	.	.	.	.	.	.	.	.	.	.	.	.	.	.	.	.	.	.	.	.	.	.	.	.	.	.	.	.	.	.	.	.	.	16eeeJJ	.
.	.	.	.	.	.	.	.	.	.	.	.	.	.	.	.	.	.	.	.	.	.	.	.	.	.	.	.	.	.	.	.	.	.	.	.	.	.	.	.	.	.	.	.	.	.	.	(8qeee/	.	.	.
8CC	.	.	8d])	.	8b])	8a])	.	8r	.	8dd^ 8ddd	.	16fLL 16g 16a 16b	16ggLL 16ccc 16fff	.	2F: 2c:	2f: 2a: 2b: 2dd: 2gg: 2bb:	.	8r	.	8exL	.	.	.	.	.	.	.	.	.	.	.	.	.	8d)]	.	.	.	4.a]	.	8b])	.	8dd])	8b])	.	8r	.	8ddd')	.	16fffLL	.
.	.	.	.	.	.	.	.	.	.	.	.	16fJ 16g 16a 16b	16ggJ 16ggg	.	.	.	.	.	.	.	.	.	.	.	.	.	.	.	.	.	.	.	.	.	.	.	.	.	.	.	.	.	.	.	.	.	.	.	16gggJ	.
.	.	.	.	.	.	.	.	.	.	.	.	.	.	.	.	.	.	.	.	.	.	.	.	.	.	.	.	.	.	.	.	.	.	.	.	.	.	.	.	.	.	.	.	.	(8qccc#/	.	.	.	.	.
8r	.	.	(4e	[	(4cc#X	((4cc#	[	8dd 8ddd	.	8r	.	8fJ 8g 8a 8b	8ffJ 8fff	.	.	.	.	8dd'	.	8exJ	.	.	.	.	.	.	.	.	.	.	.	.	.	(4en	.	.	.	.	.	(4cc#X	.	(4gg	(4ee	.	8ddd')	.	8r	.	8fffJ	.
.	.	.	.	.	.	.	.	.	.	.	.	.	.	.	.	.	.	.	.	.	.	.	.	.	.	.	.	.	.	.	.	.	.	.	.	.	.	.	.	.	.	.	.	.	.	.	(8qeee/	.	.	.
8FF	.	[4g	.	.	.	.	.	4r	.	8r	.	8fL 8g 8a 8b	8ggL 8ggg	.	.	.	.	4r	.	8exL	.	.	.	.	.	[4C [4F [4A	.	.	.	.	.	.	.	.	.	[4g	.	.	.	.	.	.	.	.	4r	.	8ddd')	.	8gggL	.
8r	.	.	[8d	.	[8b	[8a)	.	.	.	8dd^ 8ddd	.	16fL 16ff	16aaL 16fff 16aaa	.	.	.	.	.	.	8exJ	.	.	.	.	.	.	.	.	.	.	.	.	.	[8d	.	.	.	[8a	.	[8b	.	[8ff	[8dd	.	.	.	8r	.	16aaaL	.
.	.	.	.	.	.	.	.	.	.	.	.	16fJJ 16ff	16aaJJ 16fff 16aaa	.	.	.	.	.	.	.	.	.	.	.	.	.	.	.	.	.	.	.	.	.	.	.	.	.	.	.	.	.	.	.	.	.	.	.	16aaaJJ	.
=50	=50	=50	=50	=50	=50	=50	=50	=50	=50	=50	=50	=50	=50	=50	=50	=50	=50	=50	=50	=50	=50	=50	=50	=50	=50	=50	=50	=50	=50	=50	=50	=50	=50	=50	=50	=50	=50	=50	=50	=50	=50	=50	=50	=50	=50	=50	=50	=50	=50	=50
*	*	*	*	*	*	*	*	*	*	*	*	*	*	*	*	*	*	*	*	*	*	*	*	*	*	*	*	*	*	*	*	*	*	*	*	*	*	*	*	*	*	*	*	*	*	*	*	*	*	*
*	*	*	*	*	*	*	*	*^	*	*	*	*	*	*	*	*	*	*	*	*	*	*	*	*	*	*	*	*^	*	*^	*	*^	*	*	*	*	*	*	*	*	*	*	*	*	*	*	*	*	*	*
8CC	.	8g]	8d])	.	8bL])	8aL])	.	8ddd	8dd	.	2r	.	8cL 8cc	8cccL 8cccc	.	2r	2r	.	1r	.	8exL	.	1r	.	1r	.	4C.] 4.F] 4.A]	.	2r	1rc	.	2r	1rc	.	4.d]	2ryy	.	8d)]	.	8g]	.	8aL]	.	8bL])	.	8ffL)]	8ddL)]	.	8r	.	4r	.	8ccccL	.
.	.	.	.	.	.	.	.	.	.	.	.	.	.	.	.	.	.	.	.	.	.	.	.	.	.	.	.	.	.	.	.	.	.	.	.	.	.	.	.	.	.	.	.	.	.	.	.	.	(8qcccn	.	.	.	.	.
8r	.	4.a	4.f	.	(8ddJ	(8bJ	.	8r	8ryy	.	.	.	16cL 16cc	16cccL 16cccc	.	.	.	.	.	.	8exJ	.	.	.	.	.	.	.	.	.	.	.	.	.	.	.	.	8r	.	8r	.	(8bJ	.	(8ddJ	.	((8ddJ	8bJ	.	8ddd')	.	.	.	16ccccL	.
.	.	.	.	.	.	.	.	.	.	.	.	.	16dJJ 16b	16dddJJ 16bbb 16dddd	.	.	.	.	.	.	.	.	.	.	.	.	.	.	.	.	.	.	.	.	.	.	.	.	.	.	.	.	.	.	.	.	.	.	.	.	.	.	16ddddJJ	.
!	!	!	!	!	!	!	!	!LO:TX:a:t=arco	!	!	!LO:TX:a:t=arco	!	!	!	!	!	!	!	!	!	!	!	!	!	!	!	!	!	!	!	!	!	!	!	!	!	!	!	!	!	!	!	!	!	!	!	!	!	!	!	!	!	!	!
.	.	.	.	.	.	.	.	.	.	.	.	.	.	.	.	.	.	.	.	.	.	.	.	.	.	.	.	.	.	.	.	.	.	.	.	.	.	.	.	.	.	.	.	.	.	.	.	.	.	.	(8qfff/	.	.	.
4r	.	.	.	.	4cc)	4f)	.	4r	4ryy	.	.	.	16dLL 16b	16dddLL 16bbb 16dddd	.	.	.	.	.	.	8exL	.	.	.	.	.	.	.	.	.	.	.	.	.	.	.	.	4F	.	4f	.	4a)	.	4cc)	.	4cc))	4a	.	4r	.	8ccc')	.	16ddddLL	.
.	.	.	.	.	.	.	.	.	.	.	.	.	16cJ 16cc	16cccJ 16cccc	.	.	.	.	.	.	.	.	.	.	.	.	.	.	.	.	.	.	.	.	.	.	.	.	.	.	.	.	.	.	.	.	.	.	.	.	.	.	16ccccJ	.
.	.	.	.	.	.	.	.	.	.	.	.	.	8dJ 8b	8dddJ 8bbb 8dddd	.	.	.	.	.	.	8exJ	.	.	.	.	.	8r	.	.	.	.	.	.	.	8r	.	.	.	.	.	.	.	.	.	.	.	.	.	.	.	8r	.	8ddddJ	.
!	!	!	!	!	!	!	!	!LO:TX:a:t=unis.	!	!	!LO:TX:a:t=unis.	!	!	!	!	!	!	!	!	!	!	!	!	!	!	!	!	!	!	!	!	!	!	!	!	!	!	!	!	!	!	!	!	!	!	!	!	!	!	!	!	!	!	!
!	!	!LO:TX:a:t=unis.	!	!	!LO:TX:a:t=unis.	!	!	!	!	!LO:DY:t= poco %s	!	!LO:DY:t= poco %s	!	!	!	!	!	!	!	!	!	!	!	!	!	!	!	!	!	!	!	!	!	!	!	!	!	!	!	!	!	!	!	!	!	!	!	!	!	!	!	!	!	!
8GG	mf	4.e~	2ryy	.	4.a~	2ryy	.	4.cc#X~	2ryy	f	4.aa~	f	8eL 8ee	8eeeL 8eeee	.	2GGG: 2GG: 2D: 2G:	2B: 2d: 2g: 2b:	f	.	.	2r	.	.	.	.	.	[2D [2G [2B	mf	[2a	.	mf	4BX	.	mf	4d	4G	mf	[2G	.	[2e	.	2g	.	2b	.	4.cc#X	4.a	.	8r	.	8r	.	16eeeeLL	.
.	.	.	.	.	.	.	.	.	.	.	.	.	.	.	.	.	.	.	.	.	.	.	.	.	.	.	.	.	.	.	.	.	.	.	.	.	.	.	.	.	.	.	.	.	.	.	.	.	.	.	.	.	16eeeeJ	.
8r	.	.	.	.	.	.	.	.	.	.	.	.	16eL 16ee	16eeeL 16eeee	.	.	.	.	.	.	.	.	.	.	.	.	.	.	.	.	.	.	.	.	.	.	.	.	.	.	.	.	.	.	.	.	.	.	4aa	.	4aa	.	8eeeeJ	.
.	.	.	.	.	.	.	.	.	.	.	.	.	16eJJ 16ee	16eeeJJ 16eeee	.	.	.	.	.	.	.	.	.	.	.	.	.	.	.	.	.	.	.	.	.	.	.	.	.	.	.	.	.	.	.	.	.	.	.	.	.	.	.	.
8DD	.	.	.	.	.	.	.	.	.	.	.	.	8eeL 8eee	8fff#XL 8ffff#X	.	.	.	.	.	.	.	.	.	.	.	.	.	.	.	.	.	[4c	.	.	[4eX	[4A	.	.	.	.	.	.	.	.	.	.	.	.	.	.	.	.	16ffff#XLL	.
.	.	.	.	.	.	.	.	.	.	.	.	.	.	.	.	.	.	.	.	.	.	.	.	.	.	.	.	.	.	.	.	.	.	.	.	.	.	.	.	.	.	.	.	.	.	.	.	.	.	.	.	.	16ffff#J	.
8r	.	[8e	.	.	[8a	.	.	[8cc#	.	.	[8aa	.	16f#XL 16ff#X	16eeeL 16eeee	.	.	.	.	.	.	.	.	.	.	.	.	.	.	.	.	.	.	.	.	.	.	.	.	.	.	.	.	.	.	.	[8cc#	[8a	.	[8aa	.	[8aa	.	8eeeeJ	.
.	.	.	.	.	.	.	.	.	.	.	.	.	16f#JJ 16ff#	16eeeJJ 16eeee	.	.	.	.	.	.	.	.	.	.	.	.	.	.	.	.	.	.	.	.	.	.	.	.	.	.	.	.	.	.	.	.	.	.	.	.	.	.	.	.
*	*	*v	*v	*	*	*	*	*v	*v	*	*	*	*	*	*	*	*	*	*	*	*	*	*	*	*	*	*	*	*	*	*	*	*	*	*	*	*	*	*	*	*	*	*	*	*	*	*	*	*	*	*	*	*	*
*	*	*	*	*v	*v	*	*	*	*	*	*	*	*	*	*	*	*	*	*	*	*	*	*	*	*	*	*	*	*	*	*	*	*	*	*	*	*	*	*	*	*	*	*	*	*	*	*	*	*	*	*	*
=51	=51	=51	=51	=51	=51	=51	=51	=51	=51	=51	=51	=51	=51	=51	=51	=51	=51	=51	=51	=51	=51	=51	=51	=51	=51	=51	=51	=51	=51	=51	=51	=51	=51	=51	=51	=51	=51	=51	=51	=51	=51	=51	=51	=51	=51	=51	=51	=51	=51	=51	=51
8GG	.	8eL]	.	8aL]	.	8cc#L]	.	8aaL]	.	8eL 8ee	8ff#XL 8fff#X	.	1r	1r	.	1r	.	1r	.	1r	.	1r	.	4.D] 4.G] 4.B]	.	2.a_	1r	.	8c]	1r	.	8e]	8A]	.	8G]	.	8e]	.	2.g	.	2.b	.	4.cc#]	4.a]	.	8aa]	.	8aa]	.	8r	.
8r	.	(8gJ	.	(8eeJ	.	(8ggJ	.	(8eeeJ	.	16eL 16ee	16eeeL 16eeee	.	.	.	.	.	.	.	.	.	.	.	.	.	.	.	.	.	4BX	.	.	4d	4G	.	8r	.	8r	.	.	.	.	.	.	.	.	8r	.	8r	.	8eeee	.
.	.	.	.	.	.	.	.	.	.	16eJJ 16ee	16eeeJJ 16eeee	.	.	.	.	.	.	.	.	.	.	.	.	.	.	.	.	.	.	.	.	.	.	.	.	.	.	.	.	.	.	.	.	.	.	.	.	.	.	.	.
4r	.	4e~)	.	4a~)	.	4cc#X~)	.	4aa~)	.	8eeL 8eee	8fff#L 8ffff#X	.	.	.	.	.	.	.	.	.	.	.	.	.	.	.	.	.	.	.	.	.	.	.	[2.G	.	[2.e	.	.	.	.	.	.	.	.	2aa	.	2aa	.	16ffff#XLL	.
.	.	.	.	.	.	.	.	.	.	.	.	.	.	.	.	.	.	.	.	.	.	.	.	.	.	.	.	.	.	.	.	.	.	.	.	.	.	.	.	.	.	.	.	.	.	.	.	.	.	16ffff#J	.
.	.	.	.	.	.	.	.	.	.	16f#XL 16ff#X	16eeeL 16eeee	.	.	.	.	.	.	.	.	.	.	.	.	8r	.	.	.	.	4c	.	.	4eX~	4A~	.	.	.	.	.	.	.	.	.	[8cc#X	[8a	.	.	.	.	.	8eeeeJ	.
.	.	.	.	.	.	.	.	.	.	16f#JJ 16ff#	16eeeJJ 16eeee	.	.	.	.	.	.	.	.	.	.	.	.	.	.	.	.	.	.	.	.	.	.	.	.	.	.	.	.	.	.	.	.	.	.	.	.	.	.	.	.
8GG	.	4e~	.	4a~	.	4cc#~	.	4aa~	.	8eL 8ee	8ff#L 8fff#	.	.	.	.	.	.	.	.	.	.	.	.	[2D [2G [2B	.	.	.	.	.	.	.	.	.	.	.	.	.	.	.	.	.	.	4.cc#]	4.a]	.	.	.	.	.	8r	.
*	*	*	*	*	*	*	*	*	*	*clefF4	*	*	*	*	*	*	*	*	*	*	*	*	*	*	*	*	*	*	*	*	*	*	*	*	*	*	*	*	*	*	*	*	*	*	*	*	*	*	*	*	*
8r	.	.	.	.	.	.	.	.	.	8EJ 8e	16eeeL 16eeee	.	.	.	.	.	.	.	.	.	.	.	.	.	.	.	.	.	8r	.	.	8r	8r	.	.	.	.	.	.	.	.	.	.	.	.	.	.	.	.	8eeee	.
.	.	.	.	.	.	.	.	.	.	.	16eeeJJ 16eeee	.	.	.	.	.	.	.	.	.	.	.	.	.	.	.	.	.	.	.	.	.	.	.	.	.	.	.	.	.	.	.	.	.	.	.	.	.	.	.	.
8DD	.	(8gL	.	(8eeL	.	(8ggL	.	(8eeeL	.	8EEEL 8EE	8fff#L 8ffff#	.	.	.	.	.	.	.	.	.	.	.	.	.	.	8a]	.	.	8BL	.	.	(8dL	(8GL	.	.	.	.	.	[4g	.	[4b	.	.	.	.	8r	.	8r	.	16ffff#LL	.
.	.	.	.	.	.	.	.	.	.	.	.	.	.	.	.	.	.	.	.	.	.	.	.	.	.	.	.	.	.	.	.	.	.	.	.	.	.	.	.	.	.	.	.	.	.	.	.	.	.	16ffff#J	.
8r	.	[8eJ	.	[8aJ	.	[8cc#J	.	[8aaJ	.	8EEJ 8E	8eeeJ 8eeee	.	.	.	.	.	.	.	.	.	.	.	.	.	.	8r	.	.	[8cJ	.	.	[8eJ	[8AJ	.	.	.	.	.	.	.	.	.	[8cc#	[8a	.	[8aa	.	[8aa	.	8eeeeJ	.
*	*	*	*	*	*	*	*	*	*	*	*	*	*	*	*	*	*	*	*	*	*	*	*	*	*	*v	*v	*	*	*	*	*	*	*	*	*	*	*	*	*	*	*	*	*	*	*	*	*	*	*	*
=52	=52	=52	=52	=52	=52	=52	=52	=52	=52	=52	=52	=52	=52	=52	=52	=52	=52	=52	=52	=52	=52	=52	=52	=52	=52	=52	=52	=52	=52	=52	=52	=52	=52	=52	=52	=52	=52	=52	=52	=52	=52	=52	=52	=52	=52	=52	=52	=52	=52	=52
8GG	.	8e])	.	8aL])	.	8cc#L)]	.	8aaL])	.	8r	8r	ff	1r	1r	.	1r	.	2r	.	2r	.	1r	.	2D] 2G] 2B]	<	8r	.	8c]	8r	.	8e])	8A])	.	8G]	.	8e]	.	8g]	.	8b]	.	8cc#]	8a]	.	8aaL]	<	8aaL]	<	8r	.
!	!	!	!	!	!	!	!	!	!	!	!	!	!	!	!	!	!	!	!	!	!	!	!	!	!	!LO:TX:a:t=a2	!	!	!	!	!	!	!	!	!	!	!	!	!	!	!	!	!	!	!	!	!	!	!	!
8r	.	4.d	<	(8gJ	<	(8bJ	<	(8ggJ	< <	4A^ 4a	16aaaLL 16aaaa	.	.	.	.	.	.	.	.	.	.	.	.	.	.	4.b	<	4.d	4.G	< <	4.d	4.BnX	< <	4.D	< <	4.d	< <	4.e	< <	4.g	< <	4.dd	4.b	<	(8ggJ	.	(8ggJ	.	16aaaLL	.
.	.	.	.	.	.	.	.	.	.	.	16aaaJJ 16aaaa	.	.	.	.	.	.	.	.	.	.	.	.	.	.	.	.	.	.	.	.	.	.	.	.	.	.	.	.	.	.	.	.	.	.	.	.	.	16aaaJJ	.
!LO:TX:a:t=arco	!	!	!	!	!	!	!	!	!	!	!	!	!	!	!	!	!	!	!	!	!	!	!	!	!	!	!	!	!	!	!	!	!	!	!	!	!	!	!	!	!	!	!	!	!	!	!	!	!	!
4r	.	.	.	4b)	.	4dd)	.	4bb)	.	.	8aaaL 8aaaa	.	.	.	.	.	.	.	.	.	.	.	.	.	.	.	.	.	.	.	.	.	.	.	.	.	.	.	.	.	.	.	.	.	4bb)	.	4bb)	.	8aaa	.
.	.	.	.	.	.	.	.	.	.	4AA^ 4A	16aaaL 16aaaa	.	.	.	.	.	.	.	.	.	.	.	.	.	.	.	.	.	.	.	.	.	.	.	.	.	.	.	.	.	.	.	.	.	.	.	.	.	8r	.
.	.	.	.	.	.	.	.	.	.	.	16aaaJJ 16aaaa	.	.	.	.	.	.	.	.	.	.	.	.	.	.	.	.	.	.	.	.	.	.	.	.	.	.	.	.	.	.	.	.	.	.	.	.	.	.	.
4.DD	f	4.d	.	4.dd	.	4.a	.	4.ff#X	.	.	8aaaL 8aaaa	.	.	.	.	.	.	8r	.	8r	.	.	.	4.D 4.A 4.d	.	4.dd	.	4.d	4.D	.	4.f#X	4.A	.	4.D	.	4.d	.	4.d	.	4.cc	.	4.ff#X	4.a	.	4.ff#X	.	4.ff#X	.	8r	.
.	.	.	[	.	[	.	[	.	[	4AAA 4AA	16aaaL 16aaaa	.	.	.	.	.	.	16exLL	f	16exLL	f	.	.	.	[	.	[	.	.	[	.	.	[	.	[	.	[	.	[	.	[	.	.	[	.	[	.	[	16aaaaLL	.
.	.	.	.	.	.	.	.	.	.	.	16aaaJJ 16aaaa	.	.	.	.	.	.	16exJJ	.	16exJJ	.	.	.	.	.	.	.	.	.	.	.	.	.	.	.	.	.	.	.	.	.	.	.	.	.	.	.	.	16aaaaJJ	.
.	.	.	.	.	.	.	.	.	.	.	8aaaL 8aaaa	.	.	.	.	.	.	8exL	.	8exL	.	.	.	.	.	.	.	.	.	.	.	.	.	.	.	.	.	.	.	.	.	.	.	.	.	.	.	.	8aaaaL	.
*	*	*clefF4	*	*	*	*	*	*	*	*	*	*	*	*	*	*	*	*	*	*	*	*	*	*	*	*	*	*	*	*	*	*	*	*	*	*	*	*	*	*	*	*	*	*	*	*	*	*	*	*
8r	.	(8Di	f	8r	.	[8dd	f	(8d 8dd [8dddi	f	8AA 8A	16aaaL 16aaaa	.	.	.	.	.	.	16exL	.	16exL	.	.	.	8r	.	8r	.	8r	8r	.	8r	8r	.	(8Di	f	(8Di	f	8r	.	8r	.	8r	8r	.	8r	.	8r	.	16aaaaL	.
*	*	*	*	*	*	*	*	*	*	*	*X8va	*	*	*	*	*	*	*	*	*	*	*	*	*	*	*	*	*	*	*	*	*	*	*	*	*	*	*	*	*	*	*	*	*	*	*	*	*	*	*
.	.	.	.	.	.	.	.	.	.	.	16aaaJJ 16aaaa	.	.	.	.	.	.	16exJJ	.	16exJJ	.	.	.	.	.	.	.	.	.	.	.	.	.	.	.	.	.	.	.	.	.	.	.	.	.	.	.	.	16aaaaJJ	.
*	*	*	*	*	*	*	*	*	*	*	*	*	*	*	*	*	*	*	*	*	*	*	*	*	*	*	*	*v	*v	*	*	*	*	*	*	*	*	*	*	*	*	*v	*v	*	*	*	*	*	*	*
*	*	*	*	*	*	*	*	*	*	*	*	*	*	*	*	*	*	*	*	*	*	*	*	*	*	*	*	*	*	*v	*v	*	*	*	*	*	*	*	*	*	*	*	*	*	*	*	*	*
*	*	*	*	*	*	*	*	*	*	*clefG2	*	*	*	*	*	*	*	*	*	*	*	*	*	*	*	*	*	*	*	*	*	*	*	*	*	*	*	*	*	*	*	*	*	*	*	*	*
=	=	=	=	=	=	=	=	=	=	=	=	=	=	=	=	=	=	=	=	=	=	=	=	=	=	=	=	=	=	=	=	=	=	=	=	=	=	=	=	=	=	=	=	=	=	=	=
*-	*-	*-	*-	*-	*-	*-	*-	*-	*-	*-	*-	*-	*-	*-	*-	*-	*-	*-	*-	*-	*-	*-	*-	*-	*-	*-	*-	*-	*-	*-	*-	*-	*-	*-	*-	*-	*-	*-	*-	*-	*-	*-	*-	*-	*-	*-	*-
!!!system-decoration: [(s1[({(s2,s3)})]s4[({(s5,s6)})][({(s7,s8)})])][([({(s9,s10)})]s11,s12)][(s13)][(s14,s15)][({(s16,s17)})][({(s19,s20)})][([({(s21,s22)})](s23,s24,s25)]
!!!CDT: 1890/12/08-1959/08/28
!!!CBL: Polička, Bohemia
!!!CDL: Liestal, Switzerland
!!!CNT: Czech
!!!AGN: Orchestral; Concerto
!!!MCN: Stokowski, Leopold
!!!MDT: 1956/10/04
!!!MGN: New York Philharmonic Orchestra
!!!MLC: New York, New York, United States of America
!!!MPD: 1956
!!!MPN: Firkušny, Rudolf
!!!ODT: 1956
!!!PDT: 1965
!!!Xfilter: slurcheck
!!!excerpt-start-measure: 44
!!!excerpt-end-measure: 48
!!!excerpt-start-time: 1:53
!!!excerpt-end-time: 2:04
!!!EEV: 2020/01/27
!!!ONB: Converted from MusicXML on 2020/01/27
!!!RDF**kern: i = marked note, color="hotpink", text="extra("
